dist/assets/img/svg/footer-logo.svg

<svg width="111" height="91" viewBox="0 0 111 91" fill="none" xmlns="http://www.w3.org/2000/svg">
<path d="M92.7477 27.8756C88.928 33.818 82.807 36.0603 75.3467 38.7337C68.1449 41.3069 55.1747 41.1962 55.1747 41.1962C58.3569 42.2909 65.5229 43.9595 73.4604 43.7288C81.4507 43.4963 85.4874 41.6831 90.6483 41.2029C96.9315 40.6168 101.232 45.6116 99.4007 49.5423C103.111 44.4035 104.339 39.2423 104.041 33.0088C104.701 33.4439 105.475 33.6753 106.265 33.6743C106.951 33.6744 107.627 33.5011 108.229 33.1702C108.831 32.8393 109.34 32.3616 109.708 31.7813C110.077 31.201 110.294 30.5368 110.339 29.8502C110.384 29.1636 110.255 28.4767 109.965 27.8531C109.675 27.2296 109.232 26.6894 108.679 26.2827C108.125 25.876 107.478 25.6158 106.797 25.5263C106.116 25.4367 105.424 25.5207 104.785 25.7704C104.145 26.0201 103.578 26.4275 103.137 26.9548C101.881 22.6517 99.1592 18.1652 95.0811 14C96.8051 17.9874 95.0415 24.3211 92.7439 27.8832" fill="#C5C5C5"/>
<path d="M92.7477 27.8756C88.928 33.818 82.807 36.0603 75.3467 38.7337C68.1449 41.3069 55.1747 41.1962 55.1747 41.1962C58.3569 42.2909 65.5229 43.9595 73.4604 43.7288C81.4507 43.4963 85.4874 41.6831 90.6483 41.2029C96.9315 40.6168 101.232 45.6116 99.4007 49.5423C103.111 44.4035 104.339 39.2423 104.041 33.0088C104.701 33.4439 105.475 33.6753 106.265 33.6743C106.951 33.6744 107.627 33.5011 108.229 33.1702C108.831 32.8393 109.34 32.3616 109.708 31.7813C110.077 31.201 110.294 30.5368 110.339 29.8502C110.384 29.1636 110.255 28.4767 109.965 27.8531C109.675 27.2296 109.232 26.6894 108.679 26.2827C108.125 25.876 107.478 25.6158 106.797 25.5263C106.116 25.4367 105.424 25.5207 104.785 25.7704C104.145 26.0201 103.578 26.4275 103.137 26.9548C101.881 22.6517 99.1592 18.1652 95.0811 14C96.8051 17.9874 95.0415 24.3211 92.7439 27.8832" fill="#C5C9CE"/>
<path d="M70.0802 4.13425C70.0797 4.68463 70.1908 5.22936 70.4068 5.73539C70.6227 6.24142 70.939 6.6982 71.3364 7.07801C62.4464 9.44323 57.0734 17.0282 55.1739 20.8228C56.9866 18.7733 65.0996 14.6724 68.3327 20.8228C69.5984 23.239 69.1842 26.8109 66.8923 29.7962C64.6514 32.7154 61.9446 34.9294 60.7921 35.8634C58.6983 37.565 56.1405 39.9087 55.1747 41.1962C61.3806 39.2923 68.5032 36.4306 74.4111 30.3956C77.7347 26.9924 78.8457 24.5534 80.1661 20.0158C80.8867 17.5164 82.4504 15.2362 84.7781 13.9846C87.7735 12.37 91.6971 12.2795 95.0811 14C92.7496 11.3871 86.24 6.59589 77.5763 6.36712C77.9224 5.83402 78.1397 5.2273 78.2108 4.59523C78.2819 3.96316 78.2048 3.32318 77.9857 2.72622C77.7667 2.12925 77.4116 1.59176 76.9489 1.15652C76.4861 0.721275 75.9284 0.400288 75.32 0.219091C74.7117 0.0378935 74.0696 0.00148821 73.4448 0.112771C72.82 0.224054 72.2297 0.479954 71.7209 0.860112C71.2121 1.24027 70.7989 1.73419 70.5141 2.30259C70.2292 2.87099 70.0806 3.49817 70.0802 4.13425Z" fill="#C5C5C5"/>
<path d="M70.0802 4.13425C70.0797 4.68463 70.1908 5.22936 70.4068 5.73539C70.6227 6.24142 70.939 6.6982 71.3364 7.07801C62.4464 9.44323 57.0734 17.0282 55.1739 20.8228C56.9866 18.7733 65.0996 14.6724 68.3327 20.8228C69.5984 23.239 69.1842 26.8109 66.8923 29.7962C64.6514 32.7154 61.9446 34.9294 60.7921 35.8634C58.6983 37.565 56.1405 39.9087 55.1747 41.1962C61.3806 39.2923 68.5032 36.4306 74.4111 30.3956C77.7347 26.9924 78.8457 24.5534 80.1661 20.0158C80.8867 17.5164 82.4504 15.2362 84.7781 13.9846C87.7735 12.37 91.6971 12.2795 95.0811 14C92.7496 11.3871 86.24 6.59589 77.5763 6.36712C77.9224 5.83402 78.1397 5.2273 78.2108 4.59523C78.2819 3.96316 78.2048 3.32318 77.9857 2.72622C77.7667 2.12925 77.4116 1.59176 76.9489 1.15652C76.4861 0.721275 75.9284 0.400288 75.32 0.219091C74.7117 0.0378935 74.0696 0.00148821 73.4448 0.112771C72.82 0.224054 72.2297 0.479954 71.7209 0.860112C71.2121 1.24027 70.7989 1.73419 70.5141 2.30259C70.2292 2.87099 70.0806 3.49817 70.0802 4.13425Z" fill="#C5C9CE"/>
<path d="M65.5946 53.1138C68.6598 55.3712 70.5857 56.672 72.8097 59.3605C76.8444 64.2271 75.5221 71.0977 72.2079 74.0661C74.8978 72.1584 79.3872 68.8497 84.0142 65.0665C84.0142 65.1024 84.0142 65.1327 84.0142 65.1667C84.0131 65.9503 84.2368 66.7176 84.6586 67.3773C85.0804 68.037 85.6826 68.5611 86.3934 68.8874C87.1042 69.2136 87.8935 69.3281 88.6674 69.2172C89.4412 69.1063 90.167 68.7747 90.758 68.2619C91.3491 67.7492 91.7807 67.0768 92.0012 66.3251C92.2217 65.5734 92.2219 64.774 92.0018 64.0221C91.7817 63.2703 91.3506 62.5978 90.7597 62.0847C90.1689 61.5716 89.4434 61.2396 88.6696 61.1283C93.225 57.1182 97.3597 52.9436 99.4007 49.5423C96.8881 52.0928 90.7973 53.3841 87.0059 53.3009C80.7226 53.1535 77.15 51.9019 70.3858 49.5423C64.8476 47.6195 57.3968 44.2213 55.1747 41.1962C56.3065 44.3121 59.3944 48.5478 65.5946 53.1024" fill="#C5C5C5"/>
<path d="M65.5946 53.1138C68.6598 55.3712 70.5857 56.672 72.8097 59.3605C76.8444 64.2271 75.5221 71.0977 72.2079 74.0661C74.8978 72.1584 79.3872 68.8497 84.0142 65.0665C84.0142 65.1024 84.0142 65.1327 84.0142 65.1667C84.0131 65.9503 84.2368 66.7176 84.6586 67.3773C85.0804 68.037 85.6826 68.5611 86.3934 68.8874C87.1042 69.2136 87.8935 69.3281 88.6674 69.2172C89.4412 69.1063 90.167 68.7747 90.758 68.2619C91.3491 67.7492 91.7807 67.0768 92.0012 66.3251C92.2217 65.5734 92.2219 64.774 92.0018 64.0221C91.7817 63.2703 91.3506 62.5978 90.7597 62.0847C90.1689 61.5716 89.4434 61.2396 88.6696 61.1283C93.225 57.1182 97.3597 52.9436 99.4007 49.5423C96.8881 52.0928 90.7973 53.3841 87.0059 53.3009C80.7226 53.1535 77.15 51.9019 70.3858 49.5423C64.8476 47.6195 57.3968 44.2213 55.1747 41.1962C56.3065 44.3121 59.3944 48.5478 65.5946 53.1024" fill="#C5C9CE"/>
<path d="M51.9265 60.3762C51.5059 63.7453 51.4644 69.0108 49.0971 72.0264C46.8826 74.8492 40.7691 75.3536 38.1264 74.066C42.5026 77.0041 48.5727 80.3643 53.3544 83.0433C52.5145 83.4316 51.8311 84.0943 51.416 84.9229C51.001 85.7514 50.879 86.6967 51.0701 87.6038C51.2612 88.5109 51.7539 89.3261 52.4677 89.9158C53.1814 90.5055 54.0739 90.8347 54.9987 90.8495C55.9235 90.8643 56.826 90.5639 57.5582 89.9974C58.2904 89.4309 58.809 88.6319 59.0289 87.7314C59.2488 86.8309 59.1571 85.8822 58.7687 85.0408C58.3803 84.1993 57.7184 83.5151 56.8912 83.1001C61.6824 80.4096 67.8053 77.0212 72.2079 74.0661C69.5671 75.3536 63.4593 74.8492 61.2448 72.0264C58.8794 69.0108 58.8303 63.7453 58.4154 60.3762C57.6175 53.9857 55.1747 41.1962 55.1747 41.1962C55.1747 41.1962 52.7301 53.9819 51.9265 60.3724" fill="#C5C5C5"/>
<path d="M51.9265 60.3762C51.5059 63.7453 51.4644 69.0108 49.0971 72.0264C46.8826 74.8492 40.7691 75.3536 38.1264 74.066C42.5026 77.0041 48.5727 80.3643 53.3544 83.0433C52.5145 83.4316 51.8311 84.0943 51.416 84.9229C51.001 85.7514 50.879 86.6967 51.0701 87.6038C51.2612 88.5109 51.7539 89.3261 52.4677 89.9158C53.1814 90.5055 54.0739 90.8347 54.9987 90.8495C55.9235 90.8643 56.826 90.5639 57.5582 89.9974C58.2904 89.4309 58.809 88.6319 59.0289 87.7314C59.2488 86.8309 59.1571 85.8822 58.7687 85.0408C58.3803 84.1993 57.7184 83.5151 56.8912 83.1001C61.6824 80.4096 67.8053 77.0212 72.2079 74.0661C69.5671 75.3536 63.4593 74.8492 61.2448 72.0264C58.8794 69.0108 58.8303 63.7453 58.4154 60.3762C57.6175 53.9857 55.1747 41.1962 55.1747 41.1962C55.1747 41.1962 52.7301 53.9819 51.9265 60.3724" fill="#C5C9CE"/>
<path d="M32.1054 4.13545C32.1026 4.9343 32.3348 5.71625 32.7732 6.38344C24.0962 6.61221 17.5942 11.388 15.2571 14.0009C18.6411 12.2804 22.5759 12.3863 25.5675 14.0009C27.8952 15.2525 29.4627 17.5327 30.1833 20.0321C31.4999 24.5546 32.6109 26.9936 35.9346 30.3892C41.8387 36.4242 48.9651 39.2923 55.1747 41.1962C54.2108 39.9087 51.6455 37.5491 49.5536 35.857C48.4011 34.923 45.6905 32.709 43.4496 29.7899C41.1577 26.8045 40.7427 23.2311 42.0141 20.8168C45.2453 14.6664 53.3574 18.7733 55.1739 20.8228C53.2744 17.0282 47.8955 9.43687 39.0092 7.07165C39.4946 6.60312 39.8566 6.02128 40.0626 5.3782C40.2687 4.73512 40.3125 4.05085 40.1902 3.38664C40.0678 2.72243 39.783 2.099 39.3613 1.57213C38.9397 1.04526 38.3942 0.631386 37.7739 0.367552C37.1536 0.103719 36.4776 -0.00184733 35.8066 0.0603021C35.1356 0.122452 34.4904 0.350377 33.9288 0.723682C33.3672 1.09699 32.9067 1.60403 32.5885 2.19942C32.2703 2.79482 32.1043 3.46 32.1054 4.13545Z" fill="#C5C5C5"/>
<path d="M32.1054 4.13545C32.1026 4.9343 32.3348 5.71625 32.7732 6.38344C24.0962 6.61221 17.5942 11.388 15.2571 14.0009C18.6411 12.2804 22.5759 12.3863 25.5675 14.0009C27.8952 15.2525 29.4627 17.5327 30.1833 20.0321C31.4999 24.5546 32.6109 26.9936 35.9346 30.3892C41.8387 36.4242 48.9651 39.2923 55.1747 41.1962C54.2108 39.9087 51.6455 37.5491 49.5536 35.857C48.4011 34.923 45.6905 32.709 43.4496 29.7899C41.1577 26.8045 40.7427 23.2311 42.0141 20.8168C45.2453 14.6664 53.3574 18.7733 55.1739 20.8228C53.2744 17.0282 47.8955 9.43687 39.0092 7.07165C39.4946 6.60312 39.8566 6.02128 40.0626 5.3782C40.2687 4.73512 40.3125 4.05085 40.1902 3.38664C40.0678 2.72243 39.783 2.099 39.3613 1.57213C38.9397 1.04526 38.3942 0.631386 37.7739 0.367552C37.1536 0.103719 36.4776 -0.00184733 35.8066 0.0603021C35.1356 0.122452 34.4904 0.350377 33.9288 0.723682C33.3672 1.09699 32.9067 1.60403 32.5885 2.19942C32.2703 2.79482 32.1043 3.46 32.1054 4.13545Z" fill="#C5C9CE"/>
<path d="M7.20451 26.9471C6.7634 26.4206 6.19699 26.0141 5.55763 25.7651C4.91827 25.5161 4.22661 25.4327 3.54658 25.5226C2.86655 25.6125 2.2201 25.8728 1.667 26.2794C1.11391 26.686 0.67201 27.2258 0.382166 27.8489C0.0923211 28.472 -0.0361146 29.1583 0.00873027 29.8444C0.0535752 30.5304 0.270254 31.1941 0.638736 31.7739C1.00722 32.3538 1.51561 32.8312 2.11691 33.162C2.71821 33.4928 3.39301 33.6663 4.07893 33.6665C4.8685 33.6665 5.64085 33.4352 6.30097 33.001C5.99917 39.2402 7.22148 44.4036 10.9431 49.5424C9.104 45.6117 13.4066 40.609 19.6936 41.1951C24.8564 41.6754 28.8817 43.4885 36.8777 43.7211C44.8133 43.9517 51.9869 42.2909 55.1747 41.1962C55.1747 41.1962 42.2008 41.2991 35.0046 38.7259C27.533 36.0601 21.4233 33.8102 17.598 27.8754C15.3005 24.3134 13.533 17.9883 15.2571 14.0009C11.1789 18.1604 8.47021 22.6439 7.20828 26.9471" fill="#C5C5C5"/>
<path d="M7.20451 26.9471C6.7634 26.4206 6.19699 26.0141 5.55763 25.7651C4.91827 25.5161 4.22661 25.4327 3.54658 25.5226C2.86655 25.6125 2.2201 25.8728 1.667 26.2794C1.11391 26.686 0.67201 27.2258 0.382166 27.8489C0.0923211 28.472 -0.0361146 29.1583 0.00873027 29.8444C0.0535752 30.5304 0.270254 31.1941 0.638736 31.7739C1.00722 32.3538 1.51561 32.8312 2.11691 33.162C2.71821 33.4928 3.39301 33.6663 4.07893 33.6665C4.8685 33.6665 5.64085 33.4352 6.30097 33.001C5.99917 39.2402 7.22148 44.4036 10.9431 49.5424C9.104 45.6117 13.4066 40.609 19.6936 41.1951C24.8564 41.6754 28.8817 43.4885 36.8777 43.7211C44.8133 43.9517 51.9869 42.2909 55.1747 41.1962C55.1747 41.1962 42.2008 41.2991 35.0046 38.7259C27.533 36.0601 21.4233 33.8102 17.598 27.8754C15.3005 24.3134 13.533 17.9883 15.2571 14.0009C11.1789 18.1604 8.47021 22.6439 7.20828 26.9471" fill="#C5C9CE"/>
<path d="M39.9524 49.5573C33.1976 51.9169 29.6136 53.1534 23.3323 53.3009C19.5371 53.3841 13.45 52.0929 10.9431 49.5424C12.9784 52.9456 17.1169 57.1181 21.6686 61.1282C20.8944 61.2399 20.1687 61.5723 19.5778 62.0859C18.9869 62.5994 18.5558 63.2725 18.3359 64.0247C18.116 64.777 18.1166 65.5768 18.3375 66.3288C18.5584 67.0808 18.9904 67.7532 19.582 68.266C20.1735 68.7787 20.8997 69.1102 21.674 69.2208C22.4483 69.3315 23.2379 69.2166 23.9489 68.89C24.6598 68.5633 25.2621 68.0387 25.6839 67.3785C26.1056 66.7184 26.3291 65.9506 26.3277 65.1667C26.3263 65.1331 26.3232 65.0997 26.3183 65.0665C30.9529 68.8478 35.4366 72.1583 38.1264 74.066C34.8122 71.0977 33.4937 64.2346 37.5285 59.3604C39.7562 56.6719 41.6783 55.3674 44.7435 53.1213C50.9475 48.5591 54.0297 44.3045 55.1747 41.1962C52.947 44.2213 45.4943 47.627 39.9524 49.5573Z" fill="#C5C5C5"/>
<path d="M39.9524 49.5573C33.1976 51.9169 29.6136 53.1534 23.3323 53.3009C19.5371 53.3841 13.45 52.0929 10.9431 49.5424C12.9784 52.9456 17.1169 57.1181 21.6686 61.1282C20.8944 61.2399 20.1687 61.5723 19.5778 62.0859C18.9869 62.5994 18.5558 63.2725 18.3359 64.0247C18.116 64.777 18.1166 65.5768 18.3375 66.3288C18.5584 67.0808 18.9904 67.7532 19.582 68.266C20.1735 68.7787 20.8997 69.1102 21.674 69.2208C22.4483 69.3315 23.2379 69.2166 23.9489 68.89C24.6598 68.5633 25.2621 68.0387 25.6839 67.3785C26.1056 66.7184 26.3291 65.9506 26.3277 65.1667C26.3263 65.1331 26.3232 65.0997 26.3183 65.0665C30.9529 68.8478 35.4366 72.1583 38.1264 74.066C34.8122 71.0977 33.4937 64.2346 37.5285 59.3604C39.7562 56.6719 41.6783 55.3674 44.7435 53.1213C50.9475 48.5591 54.0297 44.3045 55.1747 41.1962C52.947 44.2213 45.4943 47.627 39.9524 49.5573Z" fill="#C5C9CE"/>
</svg>

<svg width="111" height="91" fill="none" xmlns="http://www.w3.org/2000/svg"><path d="M92.748 27.876c-3.82 5.942-9.941 8.184-17.401 10.858-7.202 2.573-20.172 2.462-20.172 2.462 3.182 1.095 10.348 2.764 18.285 2.533 7.99-.233 12.027-2.046 17.188-2.526 6.284-.586 10.584 4.409 8.753 8.34 3.71-5.14 4.938-10.3 4.64-16.534.66.435 1.434.666 2.224.665a4.077 4.077 0 003.443-1.893 4.099 4.099 0 00-1.029-5.498 4.078 4.078 0 00-5.542.672c-1.256-4.303-3.978-8.79-8.056-12.955 1.724 3.987-.04 10.321-2.337 13.883" fill="#C5C5C5"/><path d="M92.748 27.876c-3.82 5.942-9.941 8.184-17.401 10.858-7.202 2.573-20.172 2.462-20.172 2.462 3.182 1.095 10.348 2.764 18.285 2.533 7.99-.233 12.027-2.046 17.188-2.526 6.284-.586 10.584 4.409 8.753 8.34 3.71-5.14 4.938-10.3 4.64-16.534.66.435 1.434.666 2.224.665a4.077 4.077 0 003.443-1.893 4.099 4.099 0 00-1.029-5.498 4.078 4.078 0 00-5.542.672c-1.256-4.303-3.978-8.79-8.056-12.955 1.724 3.987-.04 10.321-2.337 13.883" fill="#C5C9CE"/><path d="M70.08 4.134a4.07 4.07 0 001.256 2.944c-8.89 2.365-14.263 9.95-16.162 13.745 1.813-2.05 9.926-6.15 13.159 0 1.265 2.416.851 5.988-1.44 8.973-2.242 2.92-4.948 5.133-6.1 6.067-2.095 1.702-4.652 4.046-5.618 5.333 6.206-1.904 13.328-4.765 19.236-10.8 3.324-3.404 4.435-5.843 5.755-10.38.72-2.5 2.284-4.78 4.612-6.031 2.995-1.615 6.92-1.705 10.303.015-2.331-2.613-8.841-7.404-17.505-7.633a4.095 4.095 0 00-.627-5.21A4.076 4.076 0 0071.72.86a4.084 4.084 0 00-1.64 3.274z" fill="#C5C5C5"/><path d="M70.08 4.134a4.07 4.07 0 001.256 2.944c-8.89 2.365-14.263 9.95-16.162 13.745 1.813-2.05 9.926-6.15 13.159 0 1.265 2.416.851 5.988-1.44 8.973-2.242 2.92-4.948 5.133-6.1 6.067-2.095 1.702-4.652 4.046-5.618 5.333 6.206-1.904 13.328-4.765 19.236-10.8 3.324-3.404 4.435-5.843 5.755-10.38.72-2.5 2.284-4.78 4.612-6.031 2.995-1.615 6.92-1.705 10.303.015-2.331-2.613-8.841-7.404-17.505-7.633a4.095 4.095 0 00-.627-5.21A4.076 4.076 0 0071.72.86a4.084 4.084 0 00-1.64 3.274z" fill="#C5C9CE"/><path d="M65.595 53.114c3.065 2.257 4.99 3.558 7.215 6.247 4.034 4.866 2.712 11.737-.602 14.705 2.69-1.908 7.18-5.216 11.806-9v.1a4.093 4.093 0 002.38 3.721 4.068 4.068 0 004.364-.625 4.086 4.086 0 001.244-4.24 4.086 4.086 0 00-3.332-2.894c4.555-4.01 8.69-8.184 10.73-11.586-2.512 2.55-8.603 3.842-12.394 3.759-6.283-.148-9.856-1.4-16.62-3.759-5.538-1.922-12.99-5.32-15.211-8.346 1.132 3.116 4.22 7.352 10.42 11.906" fill="#C5C5C5"/><path d="M65.595 53.114c3.065 2.257 4.99 3.558 7.215 6.247 4.034 4.866 2.712 11.737-.602 14.705 2.69-1.908 7.18-5.216 11.806-9v.1a4.093 4.093 0 002.38 3.721 4.068 4.068 0 004.364-.625 4.086 4.086 0 001.244-4.24 4.086 4.086 0 00-3.332-2.894c4.555-4.01 8.69-8.184 10.73-11.586-2.512 2.55-8.603 3.842-12.394 3.759-6.283-.148-9.856-1.4-16.62-3.759-5.538-1.922-12.99-5.32-15.211-8.346 1.132 3.116 4.22 7.352 10.42 11.906" fill="#C5C9CE"/><path d="M51.926 60.376c-.42 3.37-.462 8.635-2.829 11.65-2.214 2.823-8.328 3.328-10.97 2.04 4.376 2.938 10.446 6.298 15.227 8.977a4.1 4.1 0 00-.887 6.873 4.076 4.076 0 006.562-2.185 4.1 4.1 0 00-2.138-4.63c4.791-2.691 10.914-6.08 15.317-9.035-2.64 1.288-8.749.783-10.963-2.04-2.366-3.015-2.415-8.28-2.83-11.65-.797-6.39-3.24-19.18-3.24-19.18s-2.445 12.786-3.248 19.176" fill="#C5C5C5"/><path d="M51.926 60.376c-.42 3.37-.462 8.635-2.829 11.65-2.214 2.823-8.328 3.328-10.97 2.04 4.376 2.938 10.446 6.298 15.227 8.977a4.1 4.1 0 00-.887 6.873 4.076 4.076 0 006.562-2.185 4.1 4.1 0 00-2.138-4.63c4.791-2.691 10.914-6.08 15.317-9.035-2.64 1.288-8.749.783-10.963-2.04-2.366-3.015-2.415-8.28-2.83-11.65-.797-6.39-3.24-19.18-3.24-19.18s-2.445 12.786-3.248 19.176" fill="#C5C9CE"/><path d="M32.105 4.135c-.002.8.23 1.581.668 2.248-8.677.23-15.179 5.005-17.516 7.618 3.384-1.72 7.319-1.615 10.31 0 2.328 1.252 3.896 3.532 4.616 6.031 1.317 4.523 2.428 6.962 5.752 10.357 5.904 6.035 13.03 8.903 19.24 10.807-.964-1.287-3.53-3.647-5.621-5.339-1.153-.934-3.864-3.148-6.104-6.067-2.292-2.985-2.707-6.559-1.436-8.973 3.231-6.15 11.343-2.044 13.16.006-1.9-3.795-7.279-11.386-16.165-13.751a4.086 4.086 0 001.181-3.685 4.09 4.09 0 00-2.416-3.02A4.068 4.068 0 0032.589 2.2a4.094 4.094 0 00-.484 1.936z" fill="#C5C5C5"/><path d="M32.105 4.135c-.002.8.23 1.581.668 2.248-8.677.23-15.179 5.005-17.516 7.618 3.384-1.72 7.319-1.615 10.31 0 2.328 1.252 3.896 3.532 4.616 6.031 1.317 4.523 2.428 6.962 5.752 10.357 5.904 6.035 13.03 8.903 19.24 10.807-.964-1.287-3.53-3.647-5.621-5.339-1.153-.934-3.864-3.148-6.104-6.067-2.292-2.985-2.707-6.559-1.436-8.973 3.231-6.15 11.343-2.044 13.16.006-1.9-3.795-7.279-11.386-16.165-13.751a4.086 4.086 0 001.181-3.685 4.09 4.09 0 00-2.416-3.02A4.068 4.068 0 0032.589 2.2a4.094 4.094 0 00-.484 1.936z" fill="#C5C9CE"/><path d="M7.205 26.947a4.08 4.08 0 00-3.658-1.424 4.075 4.075 0 00-3.165 2.326 4.098 4.098 0 001.735 5.313 4.043 4.043 0 004.184-.161c-.302 6.24.92 11.403 4.642 16.541-1.839-3.93 2.464-8.933 8.75-8.347 5.163.48 9.189 2.294 17.185 2.526 7.935.23 15.109-1.43 18.297-2.525 0 0-12.974.103-20.17-2.47-7.472-2.666-13.582-4.916-17.407-10.85-2.297-3.563-4.065-9.888-2.34-13.875-4.08 4.16-6.788 8.643-8.05 12.946" fill="#C5C5C5"/><path d="M7.205 26.947a4.08 4.08 0 00-3.658-1.424 4.075 4.075 0 00-3.165 2.326 4.098 4.098 0 001.735 5.313 4.043 4.043 0 004.184-.161c-.302 6.24.92 11.403 4.642 16.541-1.839-3.93 2.464-8.933 8.75-8.347 5.163.48 9.189 2.294 17.185 2.526 7.935.23 15.109-1.43 18.297-2.525 0 0-12.974.103-20.17-2.47-7.472-2.666-13.582-4.916-17.407-10.85-2.297-3.563-4.065-9.888-2.34-13.875-4.08 4.16-6.788 8.643-8.05 12.946" fill="#C5C9CE"/><path d="M39.952 49.557c-6.754 2.36-10.338 3.596-16.62 3.744-3.795.083-9.882-1.208-12.389-3.759 2.035 3.404 6.174 7.576 10.726 11.586a4.074 4.074 0 00-3.333 2.897 4.097 4.097 0 001.246 4.241 4.074 4.074 0 006.102-.888c.422-.66.645-1.427.644-2.211a.96.96 0 00-.01-.1 231.766 231.766 0 0011.808 8.999c-3.314-2.968-4.632-9.831-.597-14.706 2.227-2.688 4.15-3.993 7.214-6.239 6.204-4.562 9.287-8.817 10.432-11.925-2.228 3.025-9.68 6.431-15.223 8.361z" fill="#C5C5C5"/><path d="M39.952 49.557c-6.754 2.36-10.338 3.596-16.62 3.744-3.795.083-9.882-1.208-12.389-3.759 2.035 3.404 6.174 7.576 10.726 11.586a4.074 4.074 0 00-3.333 2.897 4.097 4.097 0 001.246 4.241 4.074 4.074 0 006.102-.888c.422-.66.645-1.427.644-2.211a.96.96 0 00-.01-.1 231.766 231.766 0 0011.808 8.999c-3.314-2.968-4.632-9.831-.597-14.706 2.227-2.688 4.15-3.993 7.214-6.239 6.204-4.562 9.287-8.817 10.432-11.925-2.228 3.025-9.68 6.431-15.223 8.361z" fill="#C5C9CE"/></svg>
